build/img/icon-chat.svg

<svg width="26" height="26" viewBox="0 0 26 26" fill="none" xmlns="http://www.w3.org/2000/svg">
<path d="M10.5 0.75H15.5C18.1522 0.75 20.6957 1.80357 22.5711 3.67893C24.4464 5.5543 25.5 8.09784 25.5 10.75C25.5 13.4022 24.4464 15.9457 22.5711 17.8211C20.6957 19.6964 18.1522 20.75 15.5 20.75V25.125C9.25 22.625 0.5 18.875 0.5 10.75C0.5 8.09784 1.55357 5.5543 3.42893 3.67893C5.3043 1.80357 7.84784 0.75 10.5 0.75ZM13 18.25H15.5C16.4849 18.25 17.4602 18.056 18.3701 17.6791C19.2801 17.3022 20.1069 16.7497 20.8033 16.0533C21.4997 15.3569 22.0522 14.5301 22.4291 13.6201C22.806 12.7102 23 11.7349 23 10.75C23 9.76509 22.806 8.78982 22.4291 7.87987C22.0522 6.96993 21.4997 6.14314 20.8033 5.4467C20.1069 4.75026 19.2801 4.19781 18.3701 3.8209C17.4602 3.44399 16.4849 3.25 15.5 3.25H10.5C8.51088 3.25 6.60322 4.04018 5.1967 5.4467C3.79018 6.85322 3 8.76088 3 10.75C3 15.2625 6.0775 18.2075 13 21.35V18.25Z" fill="currentColor"/>
</svg>

<svg width="26" height="26" fill="none" xmlns="http://www.w3.org/2000/svg"><path d="M10.5.75h5a10 10 0 010 20v4.375c-6.25-2.5-15-6.25-15-14.375a10 10 0 0110-10zm2.5 17.5h2.5a7.5 7.5 0 000-15h-5a7.5 7.5 0 00-7.5 7.5c0 4.512 3.077 7.457 10 10.6v-3.1z" fill="currentColor"/></svg>
